src/apps/symbolic/sparkleshare-symbolic.svg

<svg width="16" height="16" version="1.1" xmlns="http://www.w3.org/2000/svg">
 <path d="m10.626 7.93c0.736 0 0.199 1.63 0.795 2.06 0.599 0.43 1.979-0.58 2.209 0.12 0.22 0.7-1.49 0.69-1.719 1.39-0.228 0.7 1.169 1.7 0.569 2.13-0.597 0.44-1.118-1.2-1.854-1.2-0.737 0-1.258 1.64-1.854 1.2-0.596-0.43 0.796-1.43 0.569-2.13-0.228-0.7-1.943-0.69-1.715-1.39 0.227-0.7 1.609 0.31 2.205-0.12 0.595-0.43 0.059-2.06 0.795-2.06z" fill="#363636"/>
 <path d="m2 2c-1.108 0-2 0.892-2 2v9c0 1.108 0.892 2 2 2h12c1.108 0 2-0.892 2-2v-8c0-1.108-0.892-2-2-2h-7.6289c-0.57985-0.0229-0.60474 0.076886-1.0391-0.35742-0.43381-0.43381-0.61297-0.64213-1.332-0.64258zm0 1h2c0.31116-1.7e-6 0.52033 1.383e-4 0.99805 0.4707 0.47877 0.47161 0.6388 0.5293 1 0.5293h8.002c0.554 0 1 0.446 1 1v1h-14v-2c0-0.554 0.446-1 1-1zm-1 4h14v6c0 0.554-0.446 1-1 1h-12c-0.554 0-1-0.446-1-1z" fill="#363636"/>
</svg>

<svg xmlns="http://www.w3.org/2000/svg" width="16" height="16">
    <path fill="#050505" fill-opacity=".7" d="M10.626 7.93c.736 0 .199 1.63.795 2.06.599.43 1.979-.58 2.209.12.22.7-1.49.69-1.719 1.39-.228.7 1.169 1.7.569 2.13-.597.44-1.118-1.2-1.854-1.2-.737 0-1.258 1.64-1.854 1.2-.596-.43.796-1.43.569-2.13-.228-.7-1.943-.69-1.715-1.39.227-.7 1.609.31 2.205-.12.595-.43.059-2.06.795-2.06z"/>
    <path fill="#050505" fill-opacity=".7" d="M2 2C.892 2 0 2.892 0 4v9c0 1.108.892 2 2 2h12c1.108 0 2-.892 2-2V5c0-1.108-.892-2-2-2H6.371c-.58-.023-.605.077-1.039-.357C4.898 2.209 4.719 2 4 2zm0 1h2c.311 0 .52 0 .998.47.479.472.639.53 1 .53H14c.554 0 1 .446 1 1v1H1V4c0-.554.446-1 1-1zM1 7h14v6c0 .554-.446 1-1 1H2c-.554 0-1-.446-1-1z"/>
</svg>
